X:1
T:Bartow, CM
T:Bartow, CM
T:Anonymous, 1859
T:Public Domain Courtesy of the Cyber Hymnal™
C:Anonymous, 1859
Z:Public Domain
Z:Courtesy of the Cyber Hymnal™
%%score ( 1 2 ) ( 3 4 )
L:1/8
Q:1/2=105
M:3/2
K:G
V:1 treble 
V:2 treble 
V:3 bass 
V:4 bass 
V:1
 [B,D]6 | [DG]4 [B,G]2 [DA]4 [DA]2 | [DB]4 [DA]2 (G2 A2) [DB]2 | [Ec]4 [Dd]2 [DB]4 [EG]2 | [Fd]6 | %5
 D6 | [DA]4 [DA]2 [DB]4 [DB]2 | [Dc]4 [DB]2 (A2 B2) [Ec]2 | [Dd]4 [Ec]2 (B3 c) [CA]2 | [B,G]6 |] %10
V:2
 x6 | x12 | x6 D4 x2 | x12 | x6 | D6 | x12 | x6 D4 x2 | x6 D4 x2 | x6 |] %10
V:3
 [G,,G,]6 | [B,,G,]4 [E,G,]2 [D,F,]4 [D,F,]2 | G,4 [D,F,]2 ([B,,G,]2 [D,F,]2) G,2 | %3
 [E,G,]4 [F,A,]2 G,4 [E,G,]2 | [D,A,]6 | [D,F,]6 | [D,F,]4 [D,F,]2 G,4 G,2 | %7
 [F,A,]4 G,2 (F,2 G,2) [C,G,]2 | [B,,G,]4 [C,G,]2 (G,3 A,) [D,F,]2 | [G,,G,]6 |] %10
V:4
 x6 | x12 | G,4 x2 G,2 x4 | x6 G,4 x2 | x6 | x6 | x6 G,4 G,2 | x4 G,2 D,4 x2 | x6 D,4 x2 | x6 |] %10

